X: 182
T:AN DRO 1
M:4/4
L:1/8
Q:1/4=88
Z:Yves BELOTTEAU
K:G
|GB/2c/2d3/2c/2 BGc/2B/2A/2B/2|GB/2 c<dc/2 BGA2|GB/2c/2d3/2c/2 BGc/2B/2A
/2B/2|GB/2 c<dc/2 BGA2|
|:GB/2c/2d3/2c/2 ded2|cdBG A/2G/2A/2B/2c/2B/2A/2B/2|GB/2 c<dc/2 ded2|cdB
G A/2G/2A/2B/2G2:|
W:
W: From "Falaleiro" http://home.t-online.de/home/pheld/homepage.htm
